svg/fluentui-system-icons/ic_fluent_heart_circle_hint_28_regular.svg

<svg width="28" height="28" viewBox="0 0 28 28" fill="none" xmlns="http://www.w3.org/2000/svg">
<path d="M12.1231 2.14603C12.7351 2.04986 13.362 2 14 2C14.638 2 15.2649 2.04986 15.8769 2.14603C16.2861 2.21034 16.5657 2.59419 16.5014 3.00338C16.4371 3.41257 16.0532 3.69215 15.644 3.62785C15.1088 3.54374 14.5598 3.5 14 3.5C13.4402 3.5 12.8912 3.54374 12.356 3.62785C11.9468 3.69215 11.5629 3.41257 11.4986 3.00338C11.4343 2.59419 11.7139 2.21034 12.1231 2.14603ZM3.00338 11.4986C3.41257 11.5629 3.69215 11.9468 3.62785 12.356C3.54374 12.8912 3.5 13.4402 3.5 14C3.5 14.5598 3.54374 15.1088 3.62785 15.644C3.69215 16.0532 3.41257 16.4371 3.00338 16.5014C2.59419 16.5657 2.21034 16.2861 2.14603 15.8769C2.04986 15.2649 2 14.638 2 14C2 13.362 2.04986 12.7351 2.14603 12.1231C2.21034 11.7139 2.59419 11.4343 3.00338 11.4986ZM24.9966 11.4986C25.4058 11.4343 25.7897 11.7139 25.854 12.1231C25.9501 12.7351 26 13.362 26 14C26 14.638 25.9501 15.2649 25.854 15.8769C25.7897 16.2861 25.4058 16.5657 24.9966 16.5014C24.5874 16.4371 24.3078 16.0532 24.3722 15.644C24.4563 15.1088 24.5 14.5598 24.5 14C24.5 13.4402 24.4563 12.8912 24.3722 12.356C24.3078 11.9468 24.5874 11.5629 24.9966 11.4986ZM11.4986 24.9966C11.5629 24.5874 11.9468 24.3078 12.356 24.3722C12.8912 24.4563 13.4402 24.5 14 24.5C14.5598 24.5 15.1088 24.4563 15.644 24.3722C16.0532 24.3078 16.4371 24.5874 16.5014 24.9966C16.5657 25.4058 16.2861 25.7897 15.8769 25.854C15.2649 25.9501 14.638 26 14 26C13.362 26 12.7351 25.9501 12.1231 25.854C11.7139 25.7897 11.4343 25.4058 11.4986 24.9966ZM21.0548 4.29055C21.5556 4.65527 22.0341 5.0633 22.4853 5.51446C22.9364 5.96563 23.3445 6.44417 23.7092 6.9449C23.9531 7.27971 23.8793 7.74883 23.5445 7.9927C23.2097 8.23657 22.7406 8.16285 22.4967 7.82804C22.1778 7.39011 21.8204 6.97095 21.4246 6.57512C21.0288 6.1793 20.6096 5.82199 20.1717 5.50302C19.8369 5.25915 19.7632 4.79003 20.007 4.45522C20.2509 4.12041 20.72 4.04668 21.0548 4.29055ZM7.99296 4.45522C8.23683 4.79003 8.1631 5.25915 7.82829 5.50302C7.39036 5.82199 6.9712 6.1793 6.57538 6.57512C6.17956 6.97095 5.82225 7.39011 5.50327 7.82804C5.2594 8.16285 4.79029 8.23657 4.45547 7.9927C4.12066 7.74883 4.04694 7.27971 4.29081 6.9449C4.65553 6.44417 5.06356 5.96563 5.51472 5.51446C5.96588 5.0633 6.44443 4.65527 6.94516 4.29055C7.27997 4.04668 7.74908 4.12041 7.99296 4.45522ZM23.5445 20.0068C23.8793 20.2507 23.9531 20.7198 23.7092 21.0546C23.3445 21.5553 22.9364 22.0339 22.4853 22.485C22.0341 22.9362 21.5556 23.3442 21.0548 23.7089C20.72 23.9528 20.2509 23.8791 20.007 23.5443C19.7632 23.2095 19.8369 22.7403 20.1717 22.4965C20.6096 22.1775 21.0288 21.8202 21.4246 21.4244C21.8204 21.0285 22.1778 20.6094 22.4967 20.1715C22.7406 19.8366 23.2097 19.7629 23.5445 20.0068ZM4.45547 20.0068C4.79029 19.7629 5.2594 19.8366 5.50327 20.1715C5.82225 20.6094 6.17956 21.0285 6.57538 21.4244C6.9712 21.8202 7.39036 22.1775 7.82829 22.4965C8.1631 22.7403 8.23683 23.2095 7.99296 23.5443C7.74908 23.8791 7.27997 23.9528 6.94516 23.7089C6.44443 23.3442 5.96588 22.9362 5.51472 22.485C5.06356 22.0339 4.65553 21.5553 4.29081 21.0546C4.04694 20.7198 4.12066 20.2507 4.45547 20.0068ZM9.8488 11.0643C10.4645 10.3155 11.6107 10.3155 12.2264 11.0643L13.4217 12.5181C13.5641 12.6913 13.7767 12.7917 14.001 12.7917C14.2253 12.7917 14.4378 12.6913 14.5803 12.5181L15.7756 11.0643C16.3912 10.3155 17.5375 10.3155 18.1532 11.0643C18.6201 11.6323 18.6201 12.4512 18.1532 13.0192L14.001 18.0693L9.8488 13.0192C9.38184 12.4512 9.38184 11.6323 9.8488 11.0643ZM13.385 10.1117C12.1693 8.63306 9.90586 8.63306 8.69015 10.1117C7.76805 11.2332 7.76805 12.8503 8.69015 13.9718L13.4217 19.7265C13.5641 19.8998 13.7767 20.0002 14.001 20.0002C14.2253 20.0002 14.4378 19.8998 14.5803 19.7265L19.3118 13.9718C20.2339 12.8503 20.2339 11.2332 19.3118 10.1117C18.0961 8.63306 15.8326 8.63306 14.6169 10.1117L14.001 10.8608L13.385 10.1117Z" fill="#212121"/>
</svg>

<svg xmlns="http://www.w3.org/2000/svg" width="28" height="28"><path d="M12.123 2.146a12.085 12.085 0 0 1 3.754 0 .75.75 0 1 1-.233 1.482 10.583 10.583 0 0 0-3.288 0 .75.75 0 0 1-.233-1.482Zm-9.12 9.353a.75.75 0 0 1 .625.857 10.583 10.583 0 0 0 0 3.288.75.75 0 0 1-1.482.233 12.085 12.085 0 0 1 0-3.754.75.75 0 0 1 .857-.624Zm21.994 0a.75.75 0 0 1 .857.624 12.094 12.094 0 0 1 0 3.754.75.75 0 0 1-1.482-.233 10.585 10.585 0 0 0 0-3.288.75.75 0 0 1 .625-.857ZM11.499 24.997a.75.75 0 0 1 .857-.625 10.585 10.585 0 0 0 3.288 0 .75.75 0 1 1 .233 1.482 12.094 12.094 0 0 1-3.754 0 .75.75 0 0 1-.624-.857ZM21.055 4.29a12.082 12.082 0 0 1 2.654 2.654.75.75 0 0 1-1.212.883 10.58 10.58 0 0 0-2.325-2.325.75.75 0 0 1 .883-1.212Zm-13.062.164a.75.75 0 0 1-.165 1.048 10.583 10.583 0 0 0-2.325 2.325.75.75 0 0 1-1.212-.883A12.085 12.085 0 0 1 6.945 4.29a.75.75 0 0 1 1.048.164Zm15.551 15.552a.75.75 0 0 1 .165 1.048 12.085 12.085 0 0 1-2.654 2.654.75.75 0 1 1-.883-1.212 10.589 10.589 0 0 0 2.325-2.325.75.75 0 0 1 1.047-.165Zm-19.089 0a.75.75 0 0 1 1.048.165 10.593 10.593 0 0 0 2.325 2.325.75.75 0 1 1-.883 1.212 12.078 12.078 0 0 1-2.654-2.654.75.75 0 0 1 .164-1.048Zm5.394-8.943a1.539 1.539 0 0 1 2.377 0l1.196 1.454a.75.75 0 0 0 1.158 0l1.196-1.454a1.539 1.539 0 1 1 2.377 1.955l-4.152 5.05-4.152-5.05a1.54 1.54 0 0 1 0-1.955Zm3.536-.952a3.039 3.039 0 1 0-4.695 3.86l4.732 5.755a.75.75 0 0 0 1.158 0l4.732-5.755a3.039 3.039 0 1 0-4.695-3.86L14 10.86l-.616-.75Z"/></svg>
